X: 10331
T: Masaniello Quadrilles Part 5.
R: jig
B: K\"ohler's Violin Repository, v.1, 1885 p.33 #1
F: http://www.archive.org/details/klersviolinrepos01edin
Z: 2011 John Chambers <jc:trillian.mit.edu>
N: This tune would probably be better written an octave lower.
N: The first part has only 15 bars.
M: 6/8
L: 1/8
K: G
ub |\
(.b2.b) bc'd' | (e'3 d'2)vb | (d'2c' a2)ua | ({c'}b2a) (.g2.b) |\
(.b2.b) bc'd' | (e'3 d'2)vb | (d'2c' a)ba | g z/(ud/e/f/ g)db |
f3 g2z | va(d/e/f/g/ a)dc' | ^g3 a2z | bgb (d'>e'd'/c'/) |\
ada (c'>d'c'/b/) | gde fga | gbd g2 ||
ug' |\
(.a2.a) (.a2.a) | c'ba (.g2.d) | d3- d(.d.d) | d3- d2g' |\
(a2.a) (.a2.a) | c'ba (.g2.b) | b3- b^af | b3- b2b |
a3 d'3 | d'3 g'3 | g'f'e' e'd'c' | b(e'd') b(e'd') |\
(a2b/c'/) (d'2ue'/d'/) | (d'2e'/f'/) g'3- | g'2d' (d'c'a) | "_Fine."g3- g2 "_D.C."|]

%%sep 2 1 500

